src/pos-icons/flashlight-off.svg

<svg height="24" viewBox="0 0 24 24" width="24" xmlns="http://www.w3.org/2000/svg"><path d="m2 5.27 1.28-1.27 16.72 16.72-1.27 1.28-3.73-3.73v3.73h-6v-9.73zm16-.27-3 5h-3.18l-5-5zm0-1h-12v-2h12zm-3 7v2.18l-2.18-2.18z"/></svg>

<?xml version="1.0" encoding="UTF-8"?><!DOCTYPE svg PUBLIC "-//W3C//DTD SVG 1.1//EN" "http://www.w3.org/Graphics/SVG/1.1/DTD/svg11.dtd"><svg xmlns="http://www.w3.org/2000/svg" xmlns:xlink="http://www.w3.org/1999/xlink" version="1.1" id="mdi-flashlight-off" width="24" height="24" viewBox="0 0 24 24"><path d="M2,5.27L3.28,4L20,20.72L18.73,22L15,18.27V22H9V12.27L2,5.27M18,5L15,10H11.82L6.82,5H18M18,4H6V2H18V4M15,11V13.18L12.82,11H15Z" /></svg>
